storage/app/icons/phosphoricons/duotone/cpu-duotone.svg

<svg xmlns="http://www.w3.org/2000/svg" fill="currentColor" viewBox="0 0 256 256"><path d="M200 48H56a8 8 0 0 0-8 8v144a8 8 0 0 0 8 8h144a8 8 0 0 0 8-8V56a8 8 0 0 0-8-8m-48 104h-48v-48h48Z" opacity=".2"/><path d="M152 96h-48a8 8 0 0 0-8 8v48a8 8 0 0 0 8 8h48a8 8 0 0 0 8-8v-48a8 8 0 0 0-8-8m-8 48h-32v-32h32Zm88 0h-16v-32h16a8 8 0 0 0 0-16h-16V56a16 16 0 0 0-16-16h-40V24a8 8 0 0 0-16 0v16h-32V24a8 8 0 0 0-16 0v16H56a16 16 0 0 0-16 16v40H24a8 8 0 0 0 0 16h16v32H24a8 8 0 0 0 0 16h16v40a16 16 0 0 0 16 16h40v16a8 8 0 0 0 16 0v-16h32v16a8 8 0 0 0 16 0v-16h40a16 16 0 0 0 16-16v-40h16a8 8 0 0 0 0-16m-32 56H56V56h144z"/></svg>

<svg xmlns="http://www.w3.org/2000/svg" viewBox="0 0 256 256" fill="currentColor"><path d="M200,48H56a8,8,0,0,0-8,8V200a8,8,0,0,0,8,8H200a8,8,0,0,0,8-8V56A8,8,0,0,0,200,48ZM152,152H104V104h48Z" opacity="0.2"/><path d="M152,96H104a8,8,0,0,0-8,8v48a8,8,0,0,0,8,8h48a8,8,0,0,0,8-8V104A8,8,0,0,0,152,96Zm-8,48H112V112h32Zm88,0H216V112h16a8,8,0,0,0,0-16H216V56a16,16,0,0,0-16-16H160V24a8,8,0,0,0-16,0V40H112V24a8,8,0,0,0-16,0V40H56A16,16,0,0,0,40,56V96H24a8,8,0,0,0,0,16H40v32H24a8,8,0,0,0,0,16H40v40a16,16,0,0,0,16,16H96v16a8,8,0,0,0,16,0V216h32v16a8,8,0,0,0,16,0V216h40a16,16,0,0,0,16-16V160h16a8,8,0,0,0,0-16Zm-32,56H56V56H200v95.87s0,.09,0,.13,0,.09,0,.13V200Z"/></svg>
